X:1
T:William Gibson Graig M.P.
T:William Gibson Graig M.P.
T:William Marshall
C:William Marshall
%%score { ( 1 2 ) 3 }
L:1/8
M:4/4
K:Eb
V:1 treble 
V:2 treble 
V:3 bass 
V:1
 G/F/ | EG,B,G, B,EGE | B>G A/G/F/E/ [DF]2 [DF]G/F/ | EG,B,G, GEec | %4
"^tr" [EB]>G B/A/G/F/ [G,E]2 [G,E] :| G/F/ | eEGB e/f/g/a/ be | cffe (ed)(cd) | .e.E.c.E .G.B.e.G | %9
 F/E/D/C/ B,/C/D/B,/ E2 E c/d/ | eEGB e/f/g/a/ be | (cf)(fe) edcd | e>f f/e/d/c/ B/A/G/F/ EB, | %13
 CA,B,D [G,E]2 [G,E] |] %14
V:2
 x | x6 B,2 | E2 C2 x4 | x6 E2 | x2 D2 x2 x :| x | x8 | x8 | x8 | x8 | x8 | x8 | x8 | %13
 x2 A,2 x2 x |] %14
V:3
 z | [E,,E,]2 [E,,E,]2 [G,,G,]2 [E,,E,]2 | [E,,E,]2 [A,,A,]2 [B,,B,]2 [B,,B,]2 | %3
 [E,,E,]2 [E,,E,]2 [E,,E,]2 [A,,A,]2 | [B,,B,]2 [B,,B,]2 [E,,E,]2 [E,,E,] :| z | %6
 [E,,E,]2 [E,,E,]2 [G,,G,]2 [G,,G,]2 | [A,,A,]2 [=A,,=A,]2 [B,,B,]2 [_B,,_B,]2 | %8
 [G,,G,]2 [A,,A,]2 [E,,E,]2 [E,,E,]2 | [B,,,B,,]2 [B,,,B,,A,]2 [E,,E,G,]2 [E,,E,G,] z | %10
 [E,,E,]2 [E,,E,]2 [G,,G,]2 [G,,G,]2 | [A,,A,]2 [=A,,=A,]2 [B,,B,]2 [_B,,_B,]2 | %12
 [G,,G,]2 [A,,A,]2 [G,,G,]2 [E,,E,]2 | [A,,E,]2 [B,,,B,,]2 [E,,E,]2 [E,,E,] |] %14

